svg/panorama_outline.svg

<svg xmlns="http://www.w3.org/2000/svg" viewBox="0 0 24 24"><path d="M21 4H3c-1.1 0-2 .9-2 2v12c0 1.1.9 2 2 2h18c1.1 0 2-.9 2-2V6c0-1.1-.9-2-2-2m0 14H3V6h18zm-6.5-7L11 15.5l-2.5-3L5 17h14z"/></svg>

<svg xmlns="http://www.w3.org/2000/svg" id="mdi-panorama-outline" viewBox="0 0 24 24"><path d="M21 4H3C1.9 4 1 4.9 1 6V18C1 19.1 1.9 20 3 20H21C22.1 20 23 19.1 23 18V6C23 4.9 22.1 4 21 4M21 18H3V6H21V18M14.5 11L11 15.5L8.5 12.5L5 17H19L14.5 11Z" /></svg>
